X:76
T:Mount Pleasant. ThoH.076
Q:1/2=90
M:C|
L:1/8
B:Thompson's Compleat Collection of 120 Favourite Hornpipes.
Z:Village Music Project, Simon Wilson 2016
O:England.
K:Bb
(FE)|DFB2-B2AG|ABcde2dc|dfdB cecA|B2B2B2:||:de|fdfd b2ag|fdcdB2cd|
efgf edcB|cBAGF3E|DFBD EGce|cBAGF3g|fbag fedc|B2B2B2:|

